X: 19919
T: Jig Of Life
R: jig
M: 6/8
K: Adorian
AB^c cBA|cBA GAD|EGc ABG|d2c ABG|
AB^c cBA|cBA GAD|EGc ABG|d2c Bcd|
g2e dec|cde G3|GcA dBe|Aed cda|
g2e dec|cde G3|FDA EBG|e3 edc|Bcd GAB||

